outputs/icons/navigation/hamburger_menu_thick_round.svg

<svg width="1200" height="1200" viewBox="0 0 1200 1200" fill="none" xmlns="http://www.w3.org/2000/svg"><g clip-path="url(#clip0_662_1870)"><path d="M100 1000C100 1055.23 144.772 1100 200 1100H1000C1055.23 1100 1100 1055.23 1100 1000C1100 944.77 1055.23 900 1000 900H200C144.772 900 100 944.77 100 1000ZM100 600C100 655.23 144.772 700 200 700H1000C1055.23 700 1100 655.23 1100 600C1100 544.77 1055.23 500 1000 500H200C144.772 500 100 544.77 100 600ZM200 100C144.772 100 100 144.772 100 200C100 255.228 144.772 300 200 300H1000C1055.23 300 1100 255.228 1100 200C1100 144.772 1055.23 100 1000 100H200Z" fill="black"/></g><defs><clipPath id="clip0_662_1870"><path width="24" fill="white" d="M0 0H1200V1200H0V0z"/></clipPath></defs></svg>

<svg xmlns="http://www.w3.org/2000/svg" width="1200" height="1200" fill="none"><g clip-path="url(#a)"><path fill="#000" d="M100 1000c0 55.23 44.772 100 100 100h800c55.23 0 100-44.77 100-100s-44.77-100-100-100H200c-55.228 0-100 44.77-100 100m0-400c0 55.23 44.772 100 100 100h800c55.23 0 100-44.77 100-100s-44.77-100-100-100H200c-55.228 0-100 44.77-100 100m100-500c-55.228 0-100 44.772-100 100s44.772 100 100 100h800c55.23 0 100-44.772 100-100s-44.77-100-100-100z"/></g><defs><clipPath id="a"><path fill="#fff" d="M0 0h1200v1200H0z"/></clipPath></defs></svg>
